resources/svg/building-o.svg

<svg xmlns="http://www.w3.org/2000/svg" viewBox="0 0 15 15" fill="none"><path d="M7.5 0.5L7.72361 0.0527866C7.58284 -0.0175955 7.41716 -0.0175955 7.27639 0.0527866L7.5 0.5ZM4.5 8.50001V8.00001H4V8.50001H4.5ZM8.5 8.50001H9V8.00001H8.5V8.50001ZM0 15H15V14H0V15ZM7.27639 0.0527866L1.27639 3.05279L1.72361 3.94722L7.72361 0.947213L7.27639 0.0527866ZM0 6.00001H15V5.00001H0V6.00001ZM13.7236 3.05279L7.72361 0.0527866L7.27639 0.947213L13.2764 3.94722L13.7236 3.05279ZM1 5.50001V14.5H2V5.50001H1ZM13 5.50001V14.5H14V5.50001H13ZM5 14.5V8.50001H4V14.5H5ZM4.5 9.00001H8.5V8.00001H4.5V9.00001ZM8 8.50001V14.5H9V8.50001H8Z" fill="black"/></svg>

<svg xmlns="http://www.w3.org/2000/svg" viewBox="0 0 15 15" fill="none"><path d="M7.5.5l.224-.447a.5.5 0 00-.448 0L7.5.5zm-3 8V8H4v.5h.5zm4 0H9V8h-.5v.5zM0 15h15v-1H0v1zM7.276.053l-6 3 .448.894 6-3-.448-.894zM0 6h15V5H0v1zm13.724-2.947l-6-3-.448.894 6 3 .448-.894zM1 5.5v9h1v-9H1zm12 0v9h1v-9h-1zm-8 9v-6H4v6h1zM4.5 9h4V8h-4v1zM8 8.5v6h1v-6H8z" fill="currentColor"/></svg>
